docs/svg/dzen.svg

<svg xmlns="http://www.w3.org/2000/svg" width="16" height="17" viewBox="0 0 16 17" fill="none">
  <g clip-path="url(#clip0_5851_319)">
    <mask id="mask0_5851_319" style="mask-type:luminance" maskUnits="userSpaceOnUse" x="0" y="0" width="16" height="17">
      <path d="M15.4578 0.7771H0.759033V16.2108H15.4578V0.7771Z" fill="white"/>
    </mask>
    <g mask="url(#mask0_5851_319)">
      <path d="M9.52582 9.98222C8.37091 11.2335 8.28692 12.7934 8.18717 16.2108C11.2214 16.2108 13.316 16.1998 14.3974 15.0974C15.4473 13.9619 15.4578 11.6579 15.4578 8.57665C12.2031 8.68689 10.7175 8.76957 9.52582 9.98222ZM0.759033 8.57665C0.759033 11.6579 0.769532 13.9619 1.81945 15.0974C2.90086 16.1998 4.99544 16.2108 8.02969 16.2108C7.9247 12.7934 7.84595 11.2335 6.69105 9.98222C5.49939 8.76957 4.01377 8.68138 0.759033 8.57665ZM8.02969 0.7771C5.00069 0.7771 2.90086 0.788124 1.81945 1.89053C0.769532 3.02602 0.759033 5.33005 0.759033 8.41129C4.01377 8.30105 5.49939 8.21836 6.69105 7.00571C7.84595 5.75448 7.92995 4.19457 8.02969 0.7771ZM9.52582 7.00571C8.37091 5.75448 8.28692 4.19457 8.18717 0.7771C11.2214 0.7771 13.316 0.788124 14.3974 1.89053C15.4473 3.02602 15.4578 5.33005 15.4578 8.41129C12.2031 8.30105 10.7175 8.21836 9.52582 7.00571Z" fill="white"/>
      <path d="M15.4578 8.57665V8.41129C12.2031 8.30105 10.7175 8.21836 9.52582 7.00571C8.37091 5.75448 8.28692 4.19457 8.18717 0.7771H8.02969C7.9247 4.19457 7.84595 5.75448 6.69105 7.00571C5.49939 8.21836 4.01377 8.30656 0.759033 8.41129V8.57665C4.01377 8.68689 5.49939 8.76957 6.69105 9.98222C7.84595 11.2335 7.92995 12.7934 8.02969 16.2108H8.18717C8.29217 12.7934 8.37091 11.2335 9.52582 9.98222C10.7175 8.76957 12.2031 8.68138 15.4578 8.57665Z" fill="#1C1C1C"/>
    </g>
  </g>
  <defs>
    <clipPath id="clip0_5851_319">
      <rect width="14.6988" height="15.4337" fill="white" transform="translate(0.759033 0.7771)"/>
    </clipPath>
  </defs>
</svg>

<svg xmlns="http://www.w3.org/2000/svg" width="16" height="17" fill="none"><g clip-path="url(#a)"><mask id="b" width="16" height="17" x="0" y="0" maskUnits="userSpaceOnUse" style="mask-type:luminance"><path fill="#fff" d="M15.458.777H.759v15.434h14.699z"/></mask><g mask="url(#b)"><path fill="#fff" d="M9.526 9.982c-1.155 1.252-1.24 2.811-1.339 6.229 3.034 0 5.129-.011 6.21-1.114 1.05-1.135 1.06-3.44 1.06-6.52-3.254.11-4.74.193-5.931 1.405M.759 8.577c0 3.08.01 5.385 1.06 6.52 1.082 1.103 3.176 1.114 6.21 1.114-.104-3.418-.183-4.977-1.338-6.229C5.499 8.77 4.014 8.682.759 8.577m7.27-7.8c-3.028 0-5.128.011-6.21 1.114C.77 3.026.76 5.33.76 8.41c3.255-.11 4.74-.193 5.932-1.405C7.846 5.754 7.93 4.195 8.03.777m1.497 6.229C8.37 5.754 8.286 4.195 8.187.777c3.034 0 5.129.011 6.21 1.114 1.05 1.135 1.06 3.439 1.06 6.52-3.254-.11-4.74-.193-5.931-1.405"/><path fill="#1C1C1C" d="M15.458 8.577V8.41c-3.255-.11-4.74-.193-5.932-1.405C8.37 5.754 8.286 4.195 8.187.777H8.03c-.105 3.418-.184 4.977-1.339 6.229C5.499 8.218 4.014 8.306.759 8.41v.166c3.255.11 4.74.193 5.932 1.405 1.155 1.252 1.239 2.811 1.339 6.229h.157c.105-3.418.184-4.977 1.339-6.229 1.191-1.212 2.677-1.3 5.932-1.405"/></g></g><defs><clipPath id="a"><path fill="#fff" d="M.759.777h14.699v15.434H.759z"/></clipPath></defs></svg>
